!!!!SEGMENT: pl-wn--sd-xvi-o-283_bazylik-cyprian--kancjonal-zamoyskich-nabozna-piosnka-a-obiecna-modlitwa-czlowieka-krzescianskiego-jezu-kryste-boze-wieczny.krn
!!!cenid: 15xx:838
!!!COM: Bazylik, Cyprian
!!!COM-rismID: pe40000234
!!!CDT: ~1535-~1600
!!!CNT: Polish
!!!OTL: Kancjonał Zamoyskich
!!!PDT: 1558
!!!AGN:
!!!YEC: Copyright 2022 Narodowy Instytut Fryderyka Chopina (https://polishscores.org)
!!!YEM: License CC-BY-4.0 (https://creativecommons.org/licenses/by/4.0)
!!!SMS-siglum: PL-Wn
!!!SMS-shelfmark: SD XVI.O.283
!!!SMS-shelfwork: W
!!!SMS-variant:
!!!SMS-altvar:
!!!NIFC-rismSourceID: 990004241
!!!NIFC-rismChildID: 990004241
!!!NIFC-islandoraID: none
!!!URL-pdf-islandora:
!!!URL-scan: https://polona2.pl/item/nabozna-piosnka-a-obiecna-modlitwa-czlowieka-krzescianskiego-do-syna-bozego,MTE3MTczMA/3 @EN{Scan on Polona} @PL{Skany w portalu Polona}
!!!IIIF:
!!!ONB-nifc: UWAGA: proszę zapisywać tylko teksty występujące bezpośrednio pod nutami
!!!AIN: 1 alto 1 bass 1 soprn 1 tenor
!!!key: F
**kern	**text	**kern	**text	**kern	**text	**kern	**text
*part4	*	*part3	*	*part2	*	*part1	*
*staff4	*	*staff3	*	*staff2	*	*staff1	*
*I"BAS.	*	*I"TENOR.	*	*I"ALT.	*	*I"CANT.	*
*I'B	*	*I'T	*	*I'A	*	*I'S	*
*ICvox	*	*ICvox	*	*ICvox	*	*ICvox	*
*Ibass	*	*Itenor	*	*Ialto	*	*Isoprn	*
*clefF4	*	*clefC4	*	*clefC3	*	*clefC1	*
*k[b-]	*	*k[b-]	*	*k[b-]	*	*k[b-]	*
*F:	*	*F:	*	*F:	*	*F:	*
*M2/1	*	*M2/1	*	*M2/1	*	*M2/1	*
*met(C|)	*	*met(C|)	*	*met(C|)	*	*met(C|)	*
=1-	=1-	=1-	=1-	=1-	=1-	=1-	=1-
1FF	Je-	1F	Je-	1A	Je-	2.f/	Je-
.	.	.	.	.	.	4e/	.
1BB-	-zu	1F	-zu	1.B-	-zu	4d/	.
.	.	.	.	.	.	4c/	.
.	.	.	.	.	.	2.d/	-zu
=2-	=2-	=2-	=2-	=2-	=2-	=2-	=2-
1BB-	Kry-	1D	Kry-	.	.	.	.
.	.	.	.	.	.	4c/	.
.	.	.	.	2G/	Kry-	2B-/	Kry-
1AA	-ſte	1C	-ſte	2A/	-ſte	2c/	-ſte
.	.	.	.	1.d\	Bo-	2cc\	Bo-
=3-	=3-	=3-	=3-	=3-	=3-	=3-	=3-
2BB-/	Bo-	1F	Bo-	.	.	2b-\	.
2D/	.	.	.	.	.	2a\	.
2GG/	-że	1G	-że	2B-/	-że	2g/	-że
2G\	.	.	.	1c\	wie-	2b-\	wie-
=4-	=4-	=4-	=4-	=4-	=4-	=4-	=4-
4F\	wie-	1A	wie-	.	.	4a\	czny
4E\	.	.	.	.	.	4g\	.
*	*	*	*	*	*	*custos:f	*
!	!	!	!	!	!	!LO:LB:g=original	!
4D/	.	.	.	2d\	.	4f/	a-
4C/	.	.	.	.	.	4e/	.
2BB-/	-czny	1B-	-czny	2d\	-czny	2d/	.
2GG/	.	.	.	1c\	.	1g\	-nie
=5-	=5-	=5-	=5-	=5-	=5-	=5-	=5-
1AA	a	1A	a	.	.	.	.
.	.	.	.	2A/	a	4f/	bie-
.	.	.	.	.	.	4e/	.
*custos:D	*	*	*	*	*	*	*
!LO:LB:g=original	!	!	!	!	!	!	!
2D/	nie-	2F/	nie-	2.c/	nie-	2f/	.
*	*	*custos:E	*	*	*	*	*
!	!	!LO:LB:g=original	!	!	!	!	!
2C/	-bie-	1G/	-bie-	.	.	1e/	.
.	.	.	.	4B-/	.	.	.
*	*	*	*	*custos:A	*	*	*
!	!	!	!	!LO:LB:g=original	!	!	!
=6-	=6-	=6-	=6-	=6-	=6-	=6-	=6-
1D	-ſki	.	.	4A/	-bie-	.	.
.	.	.	.	4G/	.	.	.
.	.	2F/	-ſki	1A	-ſki	1d	-ſki
1AA	pa	1E	pa-	.	.	.	.
.	.	.	.	2F/	pa-	2c/	pa-
=7-	=7-	=7-	=7-	=7-	=7-	=7-	=7-
1.BB-	nie	0D	-nie/	1B-	-nie	2d/	-nie
.	.	.	.	.	.	2.d/	.
.	.	.	.	2B-/	na	.	.
.	.	.	.	.	.	4e/	.
4AA/	.	.	.	1.c\	.	4f/	na
4GG/	.	.	.	.	.	4g/	.
=8-	=8-	=8-	=8-	=8-	=8-	=8-	=8-
2FF/	na	1A	na	.	.	2a\	.
*	*	*	*	*	*	*custos:f	*
!	!	!	!	!	!	!LO:LB:g=original	!
1F	.	.	.	.	.	2.f/	ża-
.	.	1F	ża-	2f\	ża-	.	.
.	.	.	.	.	.	4g/	.
2D/	ża-	.	.	2e\	.	2a\	.
=9-	=9-	=9-	=9-	=9-	=9-	=9-	=9-
1E	-ło-	1G	-ło-	2c/	-ło-	1g	-ło-
.	.	.	.	1d	.	.	.
1D	-ſne	1A	-ſne	.	.	1f	-sne
.	.	.	.	1e\	-sne	.	.
=10-	=10-	=10-	=10-	=10-	=10-	=10-	=10-
1C	nas	1c	nas	.	.	1g	nas
.	.	.	.	2f\	nas	.	.
*	*	*custos:c	*	*	*	*	*
!	!	!LO:LB:g=original	!	!	!	!	!
2FF/	grze-	2c\	grze-	1d	grze-	2a\	grze-
1GG/	-ſſnych	1B-\	-ſſnych	.	.	1g\	-ſſnych
*custos:AA	*	*	*	*	*	*	*
!LO:LB:g=original	!	!	!	!	!	!	!
=11-	=11-	=11-	=11-	=11-	=11-	=11-	=11-
.	.	.	.	2c/	-ſſnych	.	.
2AA/	wzdy-	2A\	wzdy-	2d\	wzdy-	1f	wzdy-
*	*	*	*	*custos:c	*	*	*
!	!	!	!	!LO:LB:g=original	!	!	!
2BB-/	-cha-	1G	-cha-	4c/	-cha-	.	.
.	.	.	.	4B-/	.	.	.
2C/	.	.	.	2A/	.	2e/	-cha-
=12-	=12-	=12-	=12-	=12-	=12-	=12-	=12-
2D/	-nie	0F	-nie	1B-	-nie	2f/	-nie/
2.BB-/	wey-	.	.	.	.	2.d/	weż-
.	.	.	.	2A/	we-	.	.
4C/	.	.	.	.	.	4e/	.
2D/	.	.	.	1c\	-zrzy	2f/	-rźiſz
*	*	*	*	*	*	*custos:e	*
!	!	!	!	!	!	!LO:LB:g=original	!
=13-	=13-	=13-	=13-	=13-	=13-	=13-	=13-
2C/	-rzyſz	1A	weyj-	.	.	2e/	o-
2FF/	.	.	.	1c	o-	2f/	.
1C	o-	1G	-rzi	.	.	2g/	-kiem
.	.	.	.	1A/	-kiem	2e/	.
=14-	=14-	=14-	=14-	=14-	=14-	=14-	=14-
2.D/	.	1F	o-	.	.	2f/	mi-
.	.	.	.	2r	.	4d/	.
4C/	.	.	.	.	.	4e/	.
2BB-/	-kiem	1D	-kiem	2A/	mi-	4f/	.
.	.	.	.	.	.	4g/	.
2.F\	mi-	.	.	2.A/	-ło-	2.a\	-ło-
*	*	*custos:F	*	*	*	*	*
!	!	!LO:LB:g=original	!	!	!	!	!
=15-	=15-	=15-	=15-	=15-	=15-	=15-	=15-
.	.	1F	mi-	.	.	.	.
4E\	.	.	.	4B-/	.	4g/	.
*custos:D	*	*	*	*	*	*	*
!LO:LB:g=original	!	!	!	!	!	!	!
2D/	.	.	.	2c/	.	2f/	-ſier-
2C/	-ło-	2E/	-ło-	2A/	.	4e/	.
.	.	.	.	.	.	4d/	.
2D/	-ſier-	1F/	-ſier-	2B-/	-ſier-	2e/	-dzia
=16-	=16-	=16-	=16-	=16-	=16-	=16-	=16-
2BB-/	-dzia	.	.	2G/	.	1d	ſwe-
*	*	*	*	*custos:G	*	*	*
!	!	!	!	!LO:LB:g=original	!	!	!
2C/	.	2E/	-dzia	1G	-dzia	.	.
1GG	ſwe-	1D	ſwe-	.	.	1c	.
.	.	.	.	2E/	ſwe-	.	.
=17-	=17-	=17-	=17-	=17-	=17-	=17-	=17-
2C/	-go	0C	-go	2.A/	-go	2B-/	-go/
2FF/	ra-	.	.	.	.	2c/	.
.	.	.	.	4B-/	.	.	.
*	*	*	*	*	*	*custos:cc	*
!	!	!	!	!	!	!LO:LB:g=original	!
2.AA/	-tuy-	.	.	4c\	ra-	4cc\	ra-
.	.	.	.	4d\	.	4b-\	.
.	.	.	.	1e\	.	4a\	-tuy-
4BB-/	.	.	.	.	.	4g\	.
=18-	=18-	=18-	=18-	=18-	=18-	=18-	=18-
1C	-że	1c	ra-	.	.	2a\	-że
.	.	.	.	1d	-tuy-	1g	.
1D	nas	1A	-tuy-	.	.	.	.
.	.	.	.	2.d\	-że	2f/	nas
=19-	=19-	=19-	=19-	=19-	=19-	=19-	=19-
2GG/	.	1B-	-że	.	.	1a	.
.	.	.	.	4e\	.	.	.
*custos:G	*	*	*	*	*	*	*
!LO:LB:g=original	!	!	!	!	!	!	!
2G\	cza-	.	.	2f\	.	.	.
*	*	*custos:c	*	*	*	*	*
!	!	!LO:LB:g=original	!	!	!	!	!
2.F\	-ſu	1c	nas	2e\	.	2g/	.
.	.	.	.	2d\	nas	2.a\	cza-
4C/	.	.	.	.	.	.	.
*	*	*	*	*custos:c	*	*	*
!	!	!	!	!LO:LB:g=original	!	!	!
=20-	=20-	=20-	=20-	=20-	=20-	=20-	=20-
2D/	ni-	1A	cza-	2c/	cza-	.	.
.	.	.	.	.	.	4g/	.
2AA/	-niey-	.	.	2c/	-ſu	2f/	-ſu
2C/	.	2G/	-ſu	1d	ni-	4e/	.
.	.	.	.	.	.	4d/	.
1GG/	-ſſe-	1B-\	ni-	.	.	2e/	ni-
=21-	=21-	=21-	=21-	=21-	=21-	=21-	=21-
.	.	.	.	2c/	-niey-	1g	-niey-
2AA/	.	2A/	-niey-	2d\	-ſſe-	.	.
2BB-/	.	1G	-ſſe-	4c/	.	1f	-ſſe-
.	.	.	.	4B-/	.	.	.
2C/	.	.	.	2A/yy	.	.	.
=22-	=22-	=22-	=22-	=22-	=22-	=22-	=22-
!LO:N:vis=00	!	!LO:N:vis=00	!	!LO:N:vis=00	!	!	!
0FF	-go.	0F	-go.	0A	-go	2e/	-go.
!	!	!	!	!	!	!LO:N:vis=00	!
.	.	.	.	.	.	1.f	.
==	==	==	==	==	==	==	==
*-	*-	*-	*-	*-	*-	*-	*-
!!!system-decoration: [(s1,s2,s3,s4)]
!!!ENC: Berenika Jozajtis
!!!END: 2022-05-26
!!!ENC: Jan Barakat
!!!END: 2022-08-14
